icons/themes/default/connect.svg

<svg viewBox="0 0 16 16" fill="none" xmlns="http://www.w3.org/2000/svg">
<path fill-rule="evenodd" clip-rule="evenodd" d="M14.814 1.20644C15.0093 1.40171 15.0093 1.71829 14.814 1.91355L13.6756 3.052C14.2225 3.75532 14.524 4.62462 14.524 5.525C14.524 6.59341 14.0995 7.61807 13.344 8.37355L13.3368 8.38077L13.3368 8.38069L13.0902 8.6174C12.962 8.7448 12.8101 8.84598 12.6431 8.91526C12.4743 8.9853 12.2933 9.02135 12.1105 9.02135C11.9277 9.02135 11.7467 8.9853 11.5779 8.91526C11.4092 8.84526 11.2559 8.7427 11.1268 8.61343L11.1266 8.61317L7.40732 4.89393L7.40716 4.89377C7.27785 4.76469 7.17525 4.61139 7.10524 4.44262C7.0352 4.27378 6.99915 4.09279 6.99915 3.91C6.99915 3.72721 7.0352 3.54622 7.10524 3.37738C7.17452 3.21038 7.2757 3.05852 7.40311 2.93029L7.6398 2.68373L7.64687 2.67637L7.64694 2.67645C8.40243 1.92096 9.42708 1.49654 10.4955 1.49654C11.3959 1.49654 12.2652 1.79795 12.9685 2.3449L14.1069 1.20644C14.3022 1.01118 14.6188 1.01118 14.814 1.20644ZM8.35752 3.38009L8.12119 3.62626L8.11375 3.63401L8.11367 3.63393C8.07737 3.67016 8.04856 3.71319 8.02891 3.76056C8.00926 3.80793 7.99915 3.85871 7.99915 3.91C7.99915 3.96128 8.00926 4.01207 8.02891 4.05944C8.04856 4.10681 8.07737 4.14984 8.11367 4.18607L8.11405 4.18645L11.834 7.90645L11.8344 7.90683C11.8707 7.94313 11.9137 7.97193 11.9611 7.99158C12.0084 8.01123 12.0592 8.02135 12.1105 8.02135C12.1618 8.02135 12.2126 8.01123 12.2599 7.99158C12.3073 7.97193 12.3503 7.94313 12.3866 7.90683L12.3942 7.89922L12.3942 7.89931L12.6404 7.66297C13.2062 7.09535 13.524 6.32656 13.524 5.525C13.524 4.7218 13.2049 3.9515 12.6369 3.38355C12.069 2.81561 11.2987 2.49654 10.4955 2.49654C9.69393 2.49654 8.92513 2.81431 8.35752 3.38009ZM7.03535 6.76772C7.22991 6.96369 7.22877 7.28027 7.0328 7.47482L5.9939 8.50625L7.51426 10.0266L8.54568 8.98772C8.74024 8.79176 9.05682 8.79061 9.25278 8.98517C9.44875 9.17972 9.44989 9.49631 9.25533 9.69227L8.22137 10.7337L8.61371 11.1261L8.61396 11.1263C8.74323 11.2554 8.8458 11.4086 8.91579 11.5774C8.98583 11.7462 9.02188 11.9272 9.02188 12.11C9.02188 12.2928 8.98583 12.4738 8.91579 12.6426C8.84651 12.8096 8.74533 12.9615 8.61793 13.0897L8.38123 13.3363L8.37416 13.3436L8.37409 13.3435C7.6186 14.099 6.59395 14.5235 5.52553 14.5235C4.62517 14.5235 3.75588 14.222 3.05256 13.6751L1.9141 14.8136C1.71884 15.0088 1.40226 15.0088 1.20699 14.8136C1.01173 14.6183 1.01173 14.3017 1.20699 14.1065L2.34545 12.968C1.79849 12.2647 1.49707 11.3954 1.49707 10.495C1.49707 9.42658 1.9215 8.40192 2.67698 7.64644L2.6842 7.63922L2.68427 7.6393L2.93082 7.40261C3.05905 7.2752 3.21091 7.17401 3.37791 7.10474C3.54675 7.03469 3.72774 6.99864 3.91053 6.99864C4.09332 6.99864 4.27432 7.03469 4.44315 7.10474C4.61192 7.17475 4.76523 7.27734 4.8943 7.40666L4.89447 7.40682L5.28679 7.79914L6.32825 6.76517C6.52422 6.57061 6.8408 6.57175 7.03535 6.76772ZM3.91053 7.99864C3.85925 7.99864 3.80847 8.00876 3.76109 8.02841C3.71372 8.04806 3.67069 8.07686 3.63447 8.11317L3.62688 8.12077L3.6268 8.12069L3.38062 8.35702C2.81484 8.92463 2.49707 9.69343 2.49707 10.495C2.49707 11.2982 2.81614 12.0685 3.38409 12.6364C3.95203 13.2044 4.72234 13.5235 5.52553 13.5235C6.32709 13.5235 7.09589 13.2057 7.6635 12.6399L7.89984 12.3937L7.90728 12.386L7.90736 12.3861C7.94366 12.3498 7.97247 12.3068 7.99212 12.2594C8.01177 12.2121 8.02188 12.1613 8.02188 12.11C8.02188 12.0587 8.01177 12.0079 7.99212 11.9606C7.97246 11.9132 7.94366 11.8702 7.90736 11.8339L7.90698 11.8335L4.18698 8.11355L4.1866 8.11317C4.15037 8.07686 4.10734 8.04806 4.05997 8.02841C4.0126 8.00876 3.96182 7.99864 3.91053 7.99864Z" fill="currentColor" />
</svg>

<svg xmlns="http://www.w3.org/2000/svg" fill="none" viewBox="0 0 16 16">
  <path fill="currentColor" fill-rule="evenodd" d="M14.814 1.206a.5.5 0 0 1 0 .708l-1.138 1.138a4.029 4.029 0 0 1-.332 5.322l-.007.007-.247.236a1.39 1.39 0 0 1-1.963-.004l-3.72-3.72a1.39 1.39 0 0 1-.004-1.963l.237-.246.007-.008a4.028 4.028 0 0 1 5.322-.331l1.138-1.139a.5.5 0 0 1 .707 0ZM8.358 3.38l-.237.246-.007.008a.39.39 0 0 0 0 .552l3.72 3.72a.39.39 0 0 0 .553 0l.007-.007.246-.236A3.028 3.028 0 0 0 8.358 3.38ZM7.035 6.768a.5.5 0 0 1-.002.707l-1.04 1.031 1.521 1.52 1.032-1.038a.5.5 0 0 1 .71.704L8.22 10.734l.393.392a1.39 1.39 0 0 1 .004 1.964l-.237.246-.007.008a4.028 4.028 0 0 1-5.321.331l-1.139 1.139a.5.5 0 0 1-.707-.707l1.138-1.139a4.028 4.028 0 0 1 .332-5.322l.007-.007.247-.236a1.39 1.39 0 0 1 1.963.004l.393.392 1.041-1.034a.5.5 0 0 1 .707.003Zm-3.124 1.23a.39.39 0 0 0-.277.115l-.007.008-.246.236a3.028 3.028 0 0 0 4.283 4.283l.236-.246.007-.008a.39.39 0 0 0 0-.552l-3.72-3.72a.39.39 0 0 0-.276-.115Z" clip-rule="evenodd"/>
</svg>
